front/public/static/landing/logos/gray/qare.svg

<svg fill="none" height="240" viewBox="0 0 600 240" width="600" xmlns="http://www.w3.org/2000/svg"><g fill="#364153"><g clip-rule="evenodd" fill-rule="evenodd"><path d="m212.167 159.108c-.263-.264-.511-.527-.774-.804 22.009-11.224 34.884-30.588 34.884-54.263 0-32.6331-25.56-59.041-57.083-59.041-22.36 0-41.709 13.2844-51.077 32.6482l19.364 11.2965c4.881-13.1235 16.061-22.2281 32.02-22.2281 21.512 0 34.767 17.0839 34.752 38.1434 0 16.426-9.426 29.521-22.652 34.533 0 0 1.783 14.936 9.821 18.896"/><path d="m329.388 157.732h-19.831c-2.484-3.157-3.712-7.293-3.712-12.437-5.378 9.762-13.942 14.643-25.721 14.673-7.643 0-13.869-2.236-18.677-6.694-4.808-4.457-7.205-10.361-7.205-17.712 0-7.439 2.558-13.284 7.673-17.552 5.115-4.267 11.691-7.029 19.758-8.271l23.105-3.625v-3.025c0-7.8768-4.706-11.808-14.103-11.808-4.34 0-7.716.8475-10.156 2.5283-2.441 1.6804-3.639 3.7849-3.639 6.2987 0 .643.102 1.286.307 1.885l-17.508 5.992c-.921-2.075-1.403-4.326-1.403-6.606 0-6.4008 2.952-11.9981 8.841-16.7767 5.89-4.779 13.738-7.161 23.544-7.161 10.946 0 19.276 2.3674 25.019 7.0879 5.744 4.7205 8.608 11.8083 8.593 21.2488v32.59c.015 7.877 1.71 14.322 5.115 19.364zm-44.631-13.855c5.889 0 10.697-1.972 14.409-5.904 3.712-3.946 5.568-9.528 5.554-16.762v-1.418l-18.59 3.142c-8.578 1.476-12.86 5.305-12.86 11.502 0 3.04 1.038 5.378 3.098 7 2.061 1.622 4.852 2.44 8.389 2.44z"/><path d="m393.487 78.6394-9.09 17.8294c-1.376-.3067-2.794-.4676-4.211-.4676-5.684 0-10.2 2.1776-13.561 6.5328-3.361 4.355-5.042 9.894-5.042 16.601v38.582h-19.524v-78.0984h19.524v12.4368c4.75-9.777 11.867-14.6726 21.366-14.6726 2.412.0439 8.475.6285 10.538 1.2566z"/><path d="m467.726 123.403h-59.186c.615 5.977 2.835 10.727 6.663 14.249 3.829 3.522 8.637 5.275 14.438 5.275 9.499 0 16.575-4.779 21.221-14.336l14.569 8.505c-7.234 15.228-19.275 22.828-36.109 22.828-10.946 0-20.272-3.858-27.975-11.575-7.699-7.716-11.542-17.61-11.542-29.681 0-12.174 3.9-22.0969 11.688-29.7548 7.793-7.6578 17.378-11.5012 28.748-11.5012 10.946 0 19.935 3.6536 26.962 10.9459 7.032 7.2926 10.538 16.6601 10.538 28.1031zm-38.115-30.8654c-4.823-.0877-9.514 1.5638-13.238 4.6474-3.727 3.01-6.446 7.102-7.818 11.735h41.212c-.937-5.144-3.157-9.1483-6.664-12.0421-3.525-2.8789-8.025-4.3403-13.492-4.3403z"/></g><path d="m158.228 87.0566c2.484-5.6119.087-12.2029-5.393-14.8189s-12.013-.2775-14.658 5.2613c-3.975 8.2571-6.05 17.3325-6.079 26.539 0 32.619 25.56 59.056 57.097 59.056h.541c5.013 8.988 15.272 19.335 29.448 22.915l9.674-18.589c-24.625-4.282-25.721-28.629-25.721-28.629-4.326 1.87-8.973 2.849-13.664 2.835-19.203 0-34.767-15.667-34.767-36.74-.088-6.138 1.125-12.2175 3.522-17.8294z"/><path d="m287.93 194.986v-18.414h3.609v1.432c.775-1.009 2.061-1.637 3.741-1.637 3.698 0 6.036 2.674 6.036 6.766s-2.557 6.767-6.328 6.767c-1.476 0-2.762-.497-3.463-1.374v6.474h-3.595zm3.419-11.867c0 2.192 1.272 3.639 3.201 3.639s3.2-1.462 3.2-3.639c0-2.207-1.271-3.668-3.2-3.668s-3.201 1.461-3.201 3.668z"/><path d="m307.378 189.885c-2.528 0-4.296-1.695-4.296-3.931 0-2.572 1.929-4.136 4.808-4.136h2.192c.643 0 .994-.424.994-.964 0-1.096-.833-1.842-2.309-1.842-1.593 0-2.426.994-2.441 2.076h-3.229c.131-2.631 2.265-4.736 5.86-4.736 3.332 0 5.743 1.93 5.743 4.896v8.433h-3.609v-1.827c-.453 1.227-1.915 2.031-3.713 2.031zm-.803-4.077c0 .862.73 1.461 1.739 1.461 1.739 0 2.762-1.3 2.762-2.966v-.176h-2.631c-1.11-.014-1.87.658-1.87 1.681z"/><path d="m323.762 179.583c-1.798 0-2.602 1.491-2.602 3.726v6.372h-3.609v-13.109h3.609v2.192c.702-1.636 1.696-2.192 3.303-2.192h1.462v3.025h-2.163z"/><path d="m344.325 171.469h3.902v18.21h-3.902v-7.629h-7.497v7.629h-3.902v-18.21h3.902v7.235h7.497z"/><path d="m357.214 189.885c-4.443 0-6.737-3.492-6.737-6.795 0-3.332 2.031-6.738 6.474-6.738 4.633 0 6.474 3.406 6.474 6.402 0 .497-.029.891-.059 1.169h-9.426c.263 1.841 1.433 2.996 3.259 2.996 1.462 0 2.426-.57 2.704-1.696h3.537c-.497 2.85-2.996 4.662-6.226 4.662zm-3.201-8.242h5.802c-.102-1.461-1.125-2.631-2.864-2.631-1.637 0-2.616.804-2.938 2.631z"/><path d="m369.519 189.885c-2.528 0-4.296-1.695-4.296-3.931 0-2.572 1.929-4.136 4.808-4.136h2.192c.643 0 .994-.424.994-.964 0-1.096-.833-1.842-2.31-1.842-1.592 0-2.426.994-2.44 2.076h-3.23c.132-2.631 2.265-4.736 5.86-4.736 3.333 0 5.743 1.93 5.743 4.896v8.433h-3.609v-1.827c-.467 1.227-1.914 2.031-3.712 2.031zm-.804-4.077c0 .862.731 1.461 1.739 1.461 1.74 0 2.763-1.3 2.763-2.966v-.176h-2.631c-1.125-.014-1.871.658-1.871 1.681z"/><path d="m379.676 189.678v-18.809h3.611v18.809z"/><path d="m387.58 172.685h3.641v3.873h3.506v3.025h-3.506v5.174c0 1.271.656 1.87 1.826 1.87h1.695v3.055h-2.164c-3.026 0-4.998-1.725-4.998-4.765v-5.334h-2.498v-3.025h2.498z"/><path d="m396.879 189.678v-18.809h3.611v7.526c.728-1.271 2.19-2.031 4.001-2.031 2.94 0 4.868 2.134 4.868 5.159v8.155h-3.638v-7.366c0-1.593-1.008-2.733-2.527-2.733-1.594 0-2.704 1.228-2.704 2.908v7.191z"/><path d="m423.623 171.469h3.9v18.21h-3.9v-7.629h-7.5v7.629h-3.9v-18.21h3.9v7.235h7.5z"/><path d="m436.528 189.885c-4.444 0-6.739-3.492-6.739-6.795 0-3.332 2.033-6.738 6.476-6.738 4.632 0 6.473 3.406 6.473 6.402 0 .497-.03.891-.056 1.169h-9.428c.263 1.841 1.433 2.996 3.259 2.996 1.462 0 2.426-.57 2.704-1.696h3.536c-.495 2.85-2.996 4.662-6.225 4.662zm-3.203-8.242h5.805c-.105-1.461-1.125-2.631-2.865-2.631-1.638 0-2.617.804-2.94 2.631z"/><path d="m451.303 179.583c-1.8 0-2.602 1.491-2.602 3.726v6.372h-3.623v-13.109h3.623v2.192c.701-1.636 1.695-2.192 3.303-2.192h1.459v3.025h-2.16z"/><path d="m460.977 189.885c-4.035 0-6.926-2.864-6.926-6.766s2.891-6.767 6.926-6.767c4.031 0 6.926 2.865 6.926 6.767s-2.895 6.766-6.926 6.766zm-3.274-6.766c0 2.163 1.332 3.639 3.274 3.639 1.943 0 3.274-1.476 3.274-3.639 0-2.192-1.331-3.668-3.274-3.668-1.942 0-3.274 1.49-3.274 3.668z"/></g></svg>

<svg width="600" height="240" viewBox="0 0 600 240" fill="none" xmlns="http://www.w3.org/2000/svg">
<path fill-rule="evenodd" clip-rule="evenodd" d="M212.167 159.108C211.904 158.844 211.656 158.581 211.393 158.304C233.402 147.08 246.277 127.716 246.277 104.041C246.277 71.4079 220.717 45 189.194 45C166.834 45 147.485 58.2844 138.117 77.6482L157.481 88.9447C162.362 75.8212 173.542 66.7166 189.501 66.7166C211.013 66.7166 224.268 83.8005 224.253 104.86C224.253 121.286 214.827 134.381 201.601 139.393C201.601 139.393 203.384 154.329 211.422 158.289" fill="#364153"/>
<path fill-rule="evenodd" clip-rule="evenodd" d="M329.388 157.732H309.557C307.073 154.575 305.845 150.439 305.845 145.295C300.467 155.057 291.903 159.938 280.124 159.968C272.481 159.968 266.255 157.732 261.447 153.274C256.639 148.817 254.242 142.913 254.242 135.562C254.242 128.123 256.8 122.278 261.915 118.01C267.03 113.743 273.606 110.981 281.673 109.739L304.778 106.114V103.089C304.778 95.2122 300.072 91.281 290.675 91.281C286.335 91.281 282.959 92.1285 280.519 93.8093C278.078 95.4897 276.88 97.5942 276.88 100.108C276.88 100.751 276.982 101.394 277.187 101.993L259.679 107.985C258.758 105.91 258.276 103.659 258.276 101.379C258.276 94.9782 261.228 89.3809 267.117 84.6023C273.007 79.8233 280.855 77.4413 290.661 77.4413C301.607 77.4413 309.937 79.8087 315.68 84.5292C321.424 89.2497 324.288 96.3375 324.273 105.778V138.368C324.288 146.245 325.983 152.69 329.388 157.732ZM284.757 143.877C290.646 143.877 295.454 141.905 299.166 137.973C302.878 134.027 304.734 128.445 304.72 121.211V119.793L286.13 122.935C277.552 124.411 273.27 128.24 273.27 134.437C273.27 137.477 274.308 139.815 276.368 141.437C278.429 143.059 281.22 143.877 284.757 143.877Z" fill="#364153"/>
<path fill-rule="evenodd" clip-rule="evenodd" d="M393.487 78.6394L384.397 96.4688C383.021 96.1621 381.603 96.0012 380.186 96.0012C374.502 96.0012 369.986 98.1788 366.625 102.534C363.264 106.889 361.583 112.428 361.583 119.135V157.717H342.059V79.6186H361.583V92.0554C366.333 82.2784 373.45 77.3828 382.949 77.3828C385.361 77.4267 391.424 78.0113 393.487 78.6394Z" fill="#364153"/>
<path fill-rule="evenodd" clip-rule="evenodd" d="M467.726 123.403H408.54C409.155 129.38 411.375 134.13 415.203 137.652C419.032 141.174 423.84 142.927 429.641 142.927C439.14 142.927 446.216 138.148 450.862 128.591L465.431 137.096C458.197 152.324 446.156 159.924 429.322 159.924C418.376 159.924 409.05 156.066 401.347 148.349C393.648 140.633 389.805 130.739 389.805 118.668C389.805 106.494 393.705 96.5711 401.493 88.9132C409.286 81.2554 418.871 77.412 430.241 77.412C441.187 77.412 450.176 81.0656 457.203 88.3579C464.235 95.6505 467.741 105.018 467.741 116.461L467.726 123.403ZM429.611 92.5376C424.788 92.4499 420.097 94.1014 416.373 97.185C412.646 100.195 409.927 104.287 408.555 108.92H449.767C448.83 103.776 446.61 99.7717 443.103 96.8779C439.578 93.999 435.078 92.5376 429.611 92.5376Z" fill="#364153"/>
<path d="M158.228 87.0566C160.712 81.4447 158.315 74.8537 152.835 72.2377C147.355 69.6217 140.822 71.9602 138.177 77.499C134.202 85.7561 132.127 94.8315 132.098 104.038C132.098 136.657 157.658 163.094 189.195 163.094H189.736C194.749 172.082 205.008 182.429 219.184 186.009L228.858 167.42C204.233 163.138 203.137 138.791 203.137 138.791C198.811 140.661 194.164 141.64 189.473 141.626C170.27 141.626 154.706 125.959 154.706 104.886C154.618 98.748 155.831 92.6685 158.228 87.0566Z" fill="#364153"/>
<path d="M287.93 194.986V176.572H291.539V178.004C292.314 176.995 293.6 176.367 295.28 176.367C298.978 176.367 301.316 179.041 301.316 183.133C301.316 187.225 298.759 189.9 294.988 189.9C293.512 189.9 292.226 189.403 291.525 188.526V195H287.93V194.986ZM291.349 183.119C291.349 185.311 292.621 186.758 294.55 186.758C296.479 186.758 297.75 185.296 297.75 183.119C297.75 180.912 296.479 179.451 294.55 179.451C292.621 179.451 291.349 180.912 291.349 183.119Z" fill="#364153"/>
<path d="M307.378 189.885C304.85 189.885 303.082 188.19 303.082 185.954C303.082 183.382 305.011 181.818 307.89 181.818H310.082C310.725 181.818 311.076 181.394 311.076 180.854C311.076 179.758 310.243 179.012 308.767 179.012C307.174 179.012 306.341 180.006 306.326 181.088H303.097C303.228 178.457 305.362 176.352 308.957 176.352C312.289 176.352 314.7 178.282 314.7 181.248V189.681H311.091V187.854C310.638 189.081 309.176 189.885 307.378 189.885ZM306.575 185.808C306.575 186.67 307.305 187.269 308.314 187.269C310.053 187.269 311.076 185.969 311.076 184.303V184.127H308.445C307.335 184.113 306.575 184.785 306.575 185.808Z" fill="#364153"/>
<path d="M323.762 179.583C321.964 179.583 321.16 181.074 321.16 183.309V189.681H317.551V176.572H321.16V178.764C321.862 177.128 322.856 176.572 324.463 176.572H325.925V179.597H323.762V179.583Z" fill="#364153"/>
<path d="M344.325 171.469H348.227V189.679H344.325V182.05H336.828V189.679H332.926V171.469H336.828V178.704H344.325V171.469Z" fill="#364153"/>
<path d="M357.214 189.885C352.771 189.885 350.477 186.393 350.477 183.09C350.477 179.758 352.508 176.352 356.951 176.352C361.584 176.352 363.425 179.758 363.425 182.754C363.425 183.251 363.396 183.645 363.366 183.923H353.94C354.203 185.764 355.373 186.919 357.199 186.919C358.661 186.919 359.625 186.349 359.903 185.223H363.44C362.943 188.073 360.444 189.885 357.214 189.885ZM354.013 181.643H359.815C359.713 180.182 358.69 179.012 356.951 179.012C355.314 179.012 354.335 179.816 354.013 181.643Z" fill="#364153"/>
<path d="M369.519 189.885C366.991 189.885 365.223 188.19 365.223 185.954C365.223 183.382 367.152 181.818 370.031 181.818H372.223C372.866 181.818 373.217 181.394 373.217 180.854C373.217 179.758 372.384 179.012 370.907 179.012C369.315 179.012 368.481 180.006 368.467 181.088H365.237C365.369 178.457 367.502 176.352 371.097 176.352C374.43 176.352 376.84 178.282 376.84 181.248V189.681H373.231V187.854C372.764 189.081 371.317 189.885 369.519 189.885ZM368.715 185.808C368.715 186.67 369.446 187.269 370.454 187.269C372.194 187.269 373.217 185.969 373.217 184.303V184.127H370.586C369.461 184.113 368.715 184.785 368.715 185.808Z" fill="#364153"/>
<path d="M379.676 189.678V170.869H383.287V189.678H379.676Z" fill="#364153"/>
<path d="M387.58 172.685H391.221V176.558H394.727V179.583H391.221V184.757C391.221 186.028 391.877 186.627 393.047 186.627H394.742V189.682H392.578C389.552 189.682 387.58 187.957 387.58 184.917V179.583H385.082V176.558H387.58V172.685Z" fill="#364153"/>
<path d="M396.879 189.678V170.869H400.49V178.395C401.218 177.124 402.68 176.364 404.491 176.364C407.431 176.364 409.359 178.498 409.359 181.523V189.678H405.721V182.312C405.721 180.719 404.713 179.579 403.194 179.579C401.6 179.579 400.49 180.807 400.49 182.487V189.678H396.879Z" fill="#364153"/>
<path d="M423.623 171.469H427.523V189.679H423.623V182.05H416.123V189.679H412.223V171.469H416.123V178.704H423.623V171.469Z" fill="#364153"/>
<path d="M436.528 189.885C432.084 189.885 429.789 186.393 429.789 183.09C429.789 179.758 431.822 176.352 436.265 176.352C440.897 176.352 442.738 179.758 442.738 182.754C442.738 183.251 442.708 183.645 442.682 183.923H433.254C433.517 185.764 434.687 186.919 436.513 186.919C437.975 186.919 438.939 186.349 439.217 185.223H442.753C442.258 188.073 439.757 189.885 436.528 189.885ZM433.325 181.643H439.13C439.025 180.182 438.005 179.012 436.265 179.012C434.627 179.012 433.648 179.816 433.325 181.643Z" fill="#364153"/>
<path d="M451.303 179.583C449.503 179.583 448.701 181.074 448.701 183.309V189.681H445.078V176.572H448.701V178.764C449.402 177.128 450.396 176.572 452.004 176.572H453.463V179.597H451.303V179.583Z" fill="#364153"/>
<path d="M460.977 189.885C456.942 189.885 454.051 187.021 454.051 183.119C454.051 179.217 456.942 176.352 460.977 176.352C465.008 176.352 467.903 179.217 467.903 183.119C467.903 187.021 465.008 189.885 460.977 189.885ZM457.703 183.119C457.703 185.282 459.035 186.758 460.977 186.758C462.92 186.758 464.251 185.282 464.251 183.119C464.251 180.927 462.92 179.451 460.977 179.451C459.035 179.451 457.703 180.941 457.703 183.119Z" fill="#364153"/>
</svg>
